Obsidian-SemiLight/actions/24s/chronometer-pause.svg

<svg viewBox="0 0 24 24" xmlns="http://www.w3.org/2000/svg"><path d="m7.8769531 4c-1.664433.856171-3.0207801 2.2125201-3.8769531 3.8769531v.1230469l.921875.3066406c.754604-1.449895 1.9348706-2.6301616 3.3847656-3.3847656l-.3066406-.921875zm8.1289059 0-.30664.921875c1.44989.75461 2.630155 1.9348756 3.384765 3.3847656l.921875-.3066406v-.1230469c-.85617-1.66443-2.212523-3.0207801-3.876953-3.8769531zm-4.005859 2c-3.877995 0-7 3.122005-7 7s3.122005 7 7 7 7-3.122005 7-7-3.122005-7-7-7zm0 1c3.323996 0 6 2.676004 6 6s-2.676004 6-6 6-6-2.676004-6-6 2.676004-6 6-6zm-3.0019531 3.001953v6h2.0000001v-6zm4.0078121 0v6h2v-6z" fill="#4d4d4d"/></svg>

<svg xmlns="http://www.w3.org/2000/svg" viewBox="0 0 24 24">
  <defs id="defs3051">
    <style type="text/css" id="current-color-scheme">
      .ColorScheme-Text {
        color:#4d4d4d;
      }
      </style>
  </defs>
 <path style="fill:currentColor;fill-opacity:1;stroke:none" 
     d="M 7.8769531 4 C 6.2125201 4.856171 4.856173 6.2125201 4 7.8769531 L 4 8 L 4.921875 8.3066406 C 5.676479 6.8567456 6.8567456 5.676479 8.3066406 4.921875 L 8 4 L 7.8769531 4 z M 16.005859 4 L 15.699219 4.921875 C 17.149109 5.676485 18.329374 6.8567506 19.083984 8.3066406 L 20.005859 8 L 20.005859 7.8769531 C 19.149689 6.2125231 17.793336 4.856173 16.128906 4 L 16.005859 4 z M 12 6 C 8.122005 6 5 9.122005 5 13 C 5 16.877995 8.122005 20 12 20 C 15.877995 20 19 16.877995 19 13 C 19 9.122005 15.877995 6 12 6 z M 12 7 C 15.323996 7 18 9.676004 18 13 C 18 16.323996 15.323996 19 12 19 C 8.676004 19 6 16.323996 6 13 C 6 9.676004 8.676004 7 12 7 z M 8.9980469 10.001953 L 8.9980469 16.001953 L 10.998047 16.001953 L 10.998047 10.001953 L 8.9980469 10.001953 z M 13.005859 10.001953 L 13.005859 16.001953 L 15.005859 16.001953 L 15.005859 10.001953 L 13.005859 10.001953 z "
     class="ColorScheme-Text"
     />
</svg>
